!!!!SEGMENT: T336_Bar-w30p25m205-221.krn
!!!COM: Bartók, Béla
!!!OTL: III: Allegro molto
!!!OMD:
!!!AGN: Instrumental
!!!AGN-sub: Keyboard
!!!CNT: Hungarian
!!!ODT: 1926
!!!OPR: Piano Sonata
!!!filename: T336_Bar-w30p25m205-221.krn
**kern	**dynam	**kern	**dynam
*grp:A	*	*grp:B	*
*part1	*	*part1	*
*staff2	*	*staff1	*
*ICklav	*	*ICklav	*
*Ipiano	*	*Ipiano	*
*I"Piano	*	*I"Piano	*
*I'pf	*	*I'pf	*
*clefF4	*	*clefG2	*
*k[]	*	*k[]	*
*C:	*	*C:	*
!!LO:TX:omd:tempo:a:t=[Più mosso]\n[[quarter]=194]
*M2/4	*	*M2/4	*
=205	=205	=205	=205
8FL 8G 8f 8g	p	8r	.
!	!	!	!LO:DY:a:rj
8F 8G 8g-X 8a-X	.	(16aaLL	mf
.	.	16ggJJ)	.
8F 8G 8f 8gn	.	(16aaLL	.
.	.	16ggJJ)	.
8FJ 8G 8g-X 8a-	.	(16aaLL	.
.	.	16ggJJ)	.
=206	=206	=206	=206
8FL 8G 8f 8g	.	(16ggLL	.
.	.	16ff#XJJ)	.
8F 8G 8g-X 8a-X	.	(16ggLL	.
.	.	16eeJJ)	.
8F 8G 8f 8gn	.	4dd~	.
8FJ 8G 8g-X 8a-	.	.	.
=207	=207	=207	=207
8FL 8G 8f 8g	.	(16aaLL	.
.	.	16bbJJ)	.
8F 8G 8g-X 8a-X	.	(16bbLL	.
.	.	16aaJJ)	.
8F 8G 8f 8gn	.	(16aaLL	.
.	.	16ggJJ)	.
8FJ 8G 8g-X 8a-	.	(16ggLL	.
.	.	16ff#XJJ)	.
=208	=208	=208	=208
*^	*	*	*
8FL 8G 8f 8g	4ryy	.	(16ggLL	.
.	.	.	16eeJJ)	.
8FJ 8G 8g-X 8a-X	.	.	4dd~	.
8r	8FL 8G	.	.	.
!LO:TX:t=P:problem: a bracket should be present here to group the two dyads of the LH	!	!	!	!LO:DY:a
!!!ONB: a bracket should be present here to group the two dyads of the LH
8G-X 8A-X	8FJ 8G	.	(16aLL	f
.	.	.	16gJJ)	.
=209	=209	=209	=209	=209
8r	8FL 8G	.	(16gLL	.
.	.	.	16f#XJJ)	.
8G-X 8A-X	8FJ 8G	.	(16gLL	.
.	.	.	16eJJ)	.
8r	8FL 8G	.	4d~	.
8G-X 8A-X	8FJ 8G	.	.	.
=210	=210	=210	=210	=210
8r	8FL 8G	.	(16bLL	.
.	.	.	16aJJ)	.
8G-X 8A-X	8FJ 8G	.	(16aLL	.
.	.	.	16gJJ)	.
8r	8FL 8G	.	(16gLL	.
.	.	.	16f#XJJ)	.
8G-X 8A-X	8FJ 8G	.	(16gLL	.
.	.	.	16eJJ)	.
=211	=211	=211	=211	=211
8r	8FL 8G	.	4d~	.
8G-X 8A-X	8FJ 8G	.	.	.
!	!	!	!	!LO:DY:a
\8FL 8Gn 8f 8g	4ryy	mf	(16ggLL	f
.	.	.	16eeJJ)	.
8FJ 8G 8g-X 8a-X	.	.	[8ddL	.
*v	*v	*	*	*
=212	=212	=212	=212
8FL 8G 8f 8g	.	8ddJ]	.
8F 8G 8g-X 8a-X	.	(16ggLL	.
.	.	16aaaJJ)	.
8F 8G 8f 8gn	.	(16gggLL	.
.	.	16eeJJ)	.
8FJ 8G 8g-X 8a-	.	[8ddL	.
=213	=213	=213	=213
8FL 8G 8f 8g	.	8ddJ]	.
8F 8G 8g-X 8a-X	.	(16ccLL	<
.	.	16ddJJ)	.
8F 8G 8f 8gn	.	(16ddLL	.
.	.	16ccJJ)	.
8FJ 8G 8g-X 8a-	.	(16ccLL	.
.	.	16b-XJJ)	.
=214	=214	=214	=214
8FL 8G	.	4fn 4g	[
8f#X 8a-X	.	.	.
8F 8G	.	[4f [4g	.
8f#J 8a-	.	.	.
=215	=215	=215	=215
8FL 8G	.	8f] 8g]	.
8f#X 8a-X	.	4.f 4.g	.
8F 8G	.	.	.
8f#J 8a-	.	.	.
=216	=216	=216	=216
8FL 8G	.	4.f 4.g	.
8f#X 8a-X	.	.	.
8F 8G	.	.	.
8f#J 8a-	.	8f 8g	.
=217	=217	=217	=217
8FL 8G 8fn 8g	.	(4f#X 4a-X 4ff#X 4aa-X	ff
8F 8G 8f 8g	.	.	.
8F 8G 8f 8g	.	8gg` 8aa 8ggg 8aaa)	.
8FJ 8G 8f 8g	.	8r	.
=218	=218	=218	=218
8FL 8G	.	8r	mf
8f#X 8a-X	.	8fL 8g	.
8F 8G	.	8r	.
8f#J 8a-	.	8fJ 8g	.
=219	=219	=219	=219
8FL 8G 8fn 8g	.	(4.f#X 4.a-X 4.ff#X 4.aa-X	f
8FJ 8G 8f 8g	.	.	.
8E^^L 8F 8e 8f	.	.	.
8E 8F 8e 8f	.	8gg` 8aa 8ggg 8aaa)	.
!!LO:REH:t=220
=220	=220	=220	=220
8E 8F 8e 8f	.	8r	.
8E 8F 8e 8f	.	8f#X 8a-X 8ff#X 8aa-X	<
8EJ 8F 8e 8f	.	4gg~ 4aa 4ggg 4aaa	.
8D^^L 8E 8d 8e	.	.	.
=221	=221	=221	=221
8D 8E 8d 8e	.	8r	.
8DJ 8E 8d 8e	.	4f#X 4a-X 4ff#X 4aa-X	.
8C^^L 8D 8c 8d	.	.	.
8CJ 8D 8c 8d	.	8gg 8aa 8ggg 8aaa	[[
=	=	=	=
*-	*-	*-	*-
!!!system-decoration: [({(s1,s2)})]
!!!EED: Daniel Wright
!!!EEV: 2021/07/22
!!!EED2: Jason Lee
!!!Suter_Work_ID: Bar-30
!!!Suter_Example_Number: 336
!!!Suter_Example_ID: Bar-30/25/205-221
!!!Premiere_Location: Budapest,Hungary
!!!Other_Tsigs: none
!!!Full_Unit_Duration: 3:44
!!!First_Publication_Year: 1927
!!!First_Public_Performance_Year: 1926
!!!Example_Total_Measures: 17
!!!Example_Timestamp_Duration: 13
!!!Example_Start_Tsig_Type: simple duple
!!!Example_Start_Tsig_Mean_Beat_Rate: 194
!!!Example_Start_Tsig_Beat_Rate: 194
!!!Example_Start_Tsig_Beat: quarter
!!!Example_Start_Tsig: 2/4
!!!Example_Start_Timestamp: 2:27
!!!Example_Start_Tempo_Expression: [Più mosso]
!!!Example_Start_Notated_Beat_Rate: [194]
!!!Example_Start_Notated_Beat: [quarter]
!!!Example_Start_Measure: 205
!!!Example_Metadata_Validated: Y
!!!Example_End_Timestamp: 2:40
!!!Example_End_Measure: 221
!!!Example_Dataset: T
!!!Editorial_Comments: Example Start Notated Beat and Example Start Notated Beat Rate [quarter=194] based on most recent notated beat rate (SWFU, m. 192). Example Start Tempo Expression [Più mosso] based on most recent notated tempo expression (SWFU, m. 192).
!!!Death_Place: New York,United States
!!!Death_Date: 26-Sep-1945
!!!Changing_Tsig: no
!!!Birth_Place: Sînnicolau Mare (Nagyszentmiklós),Romania (Hungary)
!!!Birth_Date: 25-Mar-1881
!!!Audio_Example_Quarter_Note_Tempo:
!!!Audio_Example_Duration:
!!!EEV2: 2022/01/28
